X: 3031
T: Baxaben Cuatro Alleranos
R: mazurka
M: 3/4
K: Gminor
D2|:G4 A2|B2 A2 G2|F4 E2|D6|D4 B2|d4 d2|e2 d2 c2|
[1 B4 A2|G6|G4 D2:|2 d3 d d2|e2 d2 c2|d6||
B4 A2|G4 B2|d2 d2 d2|e2 d2 c2|d3 c B2|
c2 B2 A2|B3 A G2|A2 G2 ^F2|G6||

